app/dist/common/images/fujian-kuncai-material-technology-coltd.svg

<svg height="18" viewBox="0 0 18 18" width="18" xmlns="http://www.w3.org/2000/svg"><path d="m0 0h18v18h-18z" fill="#f0f3fa"/><path d="m7 6.95 3.05-2.95h.95v1.09l-2.94 2.91h-1.06z" fill="#be573b"/><path d="m7 9.95 3.05-2.95h.95v1.09l-2.94 2.91h-1.06z" fill="#e5a948"/><path d="m7 12.95 3.05-2.95h.95v1.09l-2.94 2.91h-1.06z" fill="#4e4d4f"/></svg>

<!-- by TradingView --><svg width="18" height="18" viewBox="0 0 18 18" xmlns="http://www.w3.org/2000/svg"><path fill="#F0F3FA" d="M0 0h18v18H0z"/><path d="M7 6.95 10.05 4H11v1.09L8.06 8H7V6.95Z" fill="#BE573B"/><path d="M7 9.95 10.05 7H11v1.09L8.06 11H7V9.95Z" fill="#E5A948"/><path d="M7 12.95 10.05 10H11v1.09L8.06 14H7v-1.05Z" fill="#4E4D4F"/></svg>
